X:2002
T:Brafferton Village
R:Waltz
C:Kathryn Tickell, 1987
O:England, Northumberland
Z:Paul Hardy's Possible Tunebook 2015 (see www.paulhardy.net). Creative Commons cc by-nc-sa licenced.
M:3/4
L:1/8
Q:1/4=120
K:G
"D"D2|"G"B3 A G2|B2 c2 d2|"C"e3 c e2|"G"d4 "C"c2|"G"B3 A G2|D2 G2 B2|"Em"B3 A G2|"D"A4 D2|
"G"B3 A G2|B2 "C"c2 "G"d2|"Em"e2 f2 g2|"G"d4 "C"c2|"G"B3 c d2|B2 "D"A2 "G"G2|"D"D3 A F2|"G"G4:|
|:"G"g2|"C"e4 c2|e2 f2 g2|"G"d3 e c2|"Em"B4 G2|"C"E3 G c2|"G"D3 G B2|"C"de/f/ g2 B2|"D"A4 g2|
"C"e3 c G2|"G"d3 B G2|"C"eG fG gG|"G"d4 c2|B3 c d2|"Em"B2 A2 G2|"D"D3 A F2|"G"G4:|

